packages/ui-icons/src/Service-logos/24/IVI.svg

<svg viewBox="0 0 32 32" fill="none" xmlns="http://www.w3.org/2000/svg">
<path d="M16 28C22.6274 28 28 22.6274 28 16C28 9.37258 22.6274 4 16 4C9.37258 4 4 9.37258 4 16C4 22.6274 9.37258 28 16 28Z" fill="#EA003D"/>
<path d="M17.4487 20.1036L18.7158 17.9421H16.181L17.4487 20.1036ZM14.2969 20.1036L15.564 17.9421H13.0298L14.2969 20.1036ZM15.873 18.0682L17.1407 20.2296H14.6059L15.873 18.0682ZM19.0283 17.4096L20.2954 15.2482H17.7606L19.0283 17.4096ZM17.5023 15.4561L18.7693 17.6176H16.2352L17.5023 15.4561ZM12.7177 17.4106L11.4506 15.2491H13.9854L12.7177 17.4106ZM14.2443 15.4561L12.9766 17.6176H15.5114L14.2443 15.4561ZM10.1949 16.0094L8 14.761V17.2572L10.1949 16.0094ZM10.1949 19.2522L8 18.0045V20.5L10.1949 19.2522ZM8.00033 17.6308L10.1946 16.3831V18.8786L8.00033 17.6308ZM10.1949 12.7484L8 11.5V13.9961L10.1949 12.7484ZM24 16.0094L21.8051 14.761V17.2572L24 16.0094ZM24 19.2522L21.8051 18.0045V20.5L24 19.2522ZM21.8054 17.6308L23.9997 16.3831V18.8786L21.8054 17.6308ZM24 12.7484L21.8051 11.5V13.9961L24 12.7484Z" fill="white"/>
</svg>

<svg viewBox="0 0 32 32" fill="none" xmlns="http://www.w3.org/2000/svg"><path d="M16 28c6.627 0 12-5.373 12-12S22.627 4 16 4 4 9.373 4 16s5.373 12 12 12Z" fill="#EA003D"/><path d="m17.449 20.104 1.267-2.162H16.18l1.268 2.162Zm-3.152 0 1.267-2.162H13.03l1.267 2.162Zm1.576-2.036 1.268 2.162h-2.535l1.267-2.162Zm3.155-.658 1.267-2.162h-2.534l1.267 2.162Zm-1.526-1.954 1.267 2.162h-2.534l1.267-2.162Zm-4.784 1.955-1.267-2.162h2.534l-1.267 2.162Zm1.526-1.955-1.267 2.162h2.534l-1.267-2.162Zm-4.05.553L8 14.761v2.496l2.195-1.248Zm0 3.243L8 18.005V20.5l2.195-1.248ZM8 17.631l2.195-1.248v2.496L8 17.63Zm2.195-4.883L8 11.5v2.496l2.195-1.248ZM24 16.01l-2.195-1.248v2.496L24 16.01Zm0 3.243-2.195-1.247V20.5L24 19.252Zm-2.195-1.621L24 16.383v2.496l-2.195-1.248ZM24 12.748 21.805 11.5v2.496L24 12.748Z" fill="#fff"/></svg>
